dist/svg/shuffle.svg

<!-- Generated by Trend Micro Style Portal -->
<svg version="1.1" xmlns="http://www.w3.org/2000/svg" width="16" height="16" viewBox="0 0 16 16">
  <title>shuffle</title>
  <path fill="rgb(34,34,34)" d="M12 11h-1.546l-2.625-3 2.625-3h1.546v2l4-3-4-3v2h-2.454l-3.046 3.481-3.046-3.481h-3.454v2h2.546l2.625 3-2.625 3h-2.546v2h3.454l3.046-3.481 3.046 3.481h2.454v2l4-3.031-4-2.969v2z"></path>
</svg>

<svg width="16" height="16" viewBox="0 0 16 16" fill="rgb(34, 34, 34)" xmlns="http://www.w3.org/2000/svg"><title>shuffle</title><path d="M12 11H10.454L7.829 8L10.454 5H12V7L16 4L12 1V3H9.546L6.5 6.481L3.454 3H0V5H2.546L5.171 8L2.546 11H0V13H3.454L6.5 9.519L9.546 13H12V15L16 11.969L12 9V11Z" fill="rgb(34, 34, 34)" fill-opacity="1.00"/></svg>
